brandFactory_export/1.Light/Tarjeta de credito _1Light.svg

<?xml version="1.0" encoding="UTF-8"?>
<svg width="24px" height="24px" viewBox="0 0 24 24" version="1.1" xmlns="http://www.w3.org/2000/svg" xmlns:xlink="http://www.w3.org/1999/xlink">
    <title>1.Light/Tarjeta de credito _1Light</title>
    <g id="Symbols" stroke="none" stroke-width="1" fill="none" fill-rule="evenodd">
        <g id="1.Light/Tarjeta-de-credito-_1Light" fill="#5CB615" fill-rule="nonzero">
            <path d="M23.6201681,8.70252101 L23.6201681,13.3647059 C23.6235294,13.4016807 23.6235294,13.4352941 23.6201681,13.4722689 L23.6201681,19.2537815 C23.6235294,19.6537815 23.4621849,20.0403361 23.1764706,20.3260504 C22.887395,20.6084034 22.5008403,20.7663866 22.0941176,20.7663866 L1.50588235,20.7663866 C0.678991597,20.7663866 0.0100840336,20.1008403 0,19.2739496 L0,5.52268908 C0.0100840336,4.69243697 0.685714286,4.02689076 1.51596639,4.03019953 L22.0941176,4.03019953 C22.4941176,4.02689076 22.8806723,4.18487395 23.1663866,4.46386555 C23.4521008,4.74285714 23.6168067,5.12268908 23.6168067,5.52268908 L23.6168067,8.59495798 C23.6235294,8.63193277 23.6235294,8.66890756 23.6201681,8.70252101 Z M0.98487395,9.2 L0.98487395,12.887395 L22.6386555,12.887395 L22.6386555,9.2 L0.98487395,9.2 Z M1.51596639,5.01848739 C1.37478992,5.01512605 1.24033613,5.06890756 1.1394958,5.16638655 C1.03865546,5.26386555 0.981512605,5.39495798 0.981512605,5.53613445 L0.981512605,8.22857143 L22.6184874,8.22857143 L22.6184874,5.53613445 C22.6184874,5.25042017 22.3831933,5.01848739 22.097479,5.01848739 L1.51596639,5.01848739 Z M22.097479,19.7815126 C22.2386555,19.7882353 22.3764706,19.7344538 22.4806723,19.6369748 C22.5815126,19.5394958 22.6386555,19.405042 22.6386555,19.2638655 L22.6386555,13.8621849 L0.98487395,13.8621849 L0.98487395,19.2638655 C0.98487395,19.4016807 1.04201681,19.5361345 1.14285714,19.6336134 C1.24369748,19.7310924 1.37815126,19.7848739 1.51932773,19.7815126 L22.097479,19.7815126 L22.097479,19.7815126 Z" id="Tarjeta-de-credito-_1Light"></path>
        </g>
    </g>
</svg>

<svg width="24" height="24" viewBox="0 0 24 24" xmlns="http://www.w3.org/2000/svg"><path d="M23.62 8.703v4.662a.575.575 0 010 .107v5.782c.004.4-.158.786-.444 1.072-.289.282-.675.44-1.082.44H1.506A1.507 1.507 0 010 19.274V5.523A1.51 1.51 0 011.516 4.03h20.578c.4-.003.787.155 1.072.434.286.279.45.659.45 1.059v3.072a.389.389 0 01.004.108zM.985 9.2v3.687h21.654V9.2H.985zm.531-4.182a.522.522 0 00-.534.518V8.23h21.636V5.536a.52.52 0 00-.52-.518H1.515zm20.581 14.764a.519.519 0 00.541-.518v-5.402H.986v5.402a.522.522 0 00.534.518h20.578z" fill="#5CB615" fill-rule="nonzero"/></svg>
